X:1
T:Ballade Irlandaise
C:Trad., abc file by Bernard Loffet
L:1/8
Q:280
M:4/4
K:C
z2[G2G,2][c2F,2][d2G,2]|[e2C,2]C,2C,2C,2|C,2[d2C,2][c2F,2]F,A|[G2C,2]C,2C,2C,2|C,2[c2C,2][c2E,2][B2E,2]|[c2A,2]A,2A,2A,2|A,2[dA,]e[f2D,2]D,e|[d2G,2]G,2G,2G,2| \
G,2[d2G,2][e2G,2][f2G,2]|[g2C,2]C,2C,2C,2|C,2[fG,]e[d2G,2]G,c|[e2A,2]A,2A,2A,2|A,2[d2A,2][c2F,2]F,A|[G2C,2]C,2C,2[G2C,2]|[A2F,2]F,2F,2[c2F,2]|[c2C,2]C,2C,2C,2| \
C,8| \
Z:Created with TablEdit http://www.tabledit.com/ by Bernard Loffet
